!!!OTL: 463. Verwelkte Blumen.
!!!ODT: 1854
!!!ARE: Europa, Mitteleuropa, Deutschland, Gransee, Roennebeck
!!!SCT: B0463
!!!TXL: @@DE
!!!YEM: Copyright 1995, estate of Helmut Schaffrath.
**kern	**text
*ICvox	*
*Ivox	*
*clefG2	*
*M2/4	*
*k[f#]	*
*G:	*
!LO:TX:a:t=Gemäßigt.	!
{8dd	Jch
=1	=1
8eeL	wand
8ddJ	.
8ccL	einſt
8aJ	.
=2	=2
(4g	ei-
8b/)}	.
{8g	-nen
=3	=3
(4f#	Veil-
8a)	.
8cc	-chen-
=4	=4
(4cc	-kranʒ
8b)}	.
{8d	bei
=5	=5
(4cc	Mon-
8b)	.
8a	-den-
=6	=6
(4a	-ſchein
8g)}	.
{8e	und
=7	=7
(4d	Ster-
8e)	.
8f#	-nen-
=8	=8
4g	-glanʒ.
8r}	.
{8d	Die
=9	=9
8f#L	Droſ-
8aJ	.
8a	-ſel
8cc	die
=10	=10
8bq	.
4.dd}	ſang,
{8b	die
=11	=11
8.cc	Nach-
16ee	-ti-
8gg	-gall
8ee	die
=12	=12
4.dd}	ſchlug,
{8g	da
=13	=13
8f#L	pocht'
8aJ	.
8ccL	mit
8eeJ	mein
=14	=14
8ee	Her-
8dd}	-ʒe,
{8b	das
8g	im
=15	=15
4dd	Bu-
8cc	-ſen
8a	ich
=16	=16
4g	trug.
8r}	.
==	==
!!!AGN: Liebes - Lied, Leid, Klage
!!!GTL: Liebeslieder - Liebesleid
!!!ONB: ESAC (Essen Associative Code) Database: BOEHME
!!!AMT: simple duple
!!!AIN: vox
!!!EED: Helmut Schaffrath
!!!EEV: 1.0
!!Aus Rönnebeck bei Granſee. 1854.
!!@@COMMENT:"Dem Texte liegt jedenfalls Kunſtdichtung ʒu Grunde. Wer ihr Verfaſſer, weiß ich nicht."
!!@@END:
!!!URL-scan: https://archive.org/details/BoehmeVtLieder1895/page/n373/mode/2up
!!!ENC: Anna Maria Matuszewska
!!!EEV: 2024/09/07
*-	*-
